packages/core/src/svgs/stx.svg

<svg width="24" height="24" viewBox="0 0 24 24" fill="none" xmlns="http://www.w3.org/2000/svg">
<g clip-path="url(#clip0_31_19446)">
<path d="M0 0H24V24H0V0Z" fill="#7023EB"/>
<path d="M8.75164 9.00021C8.01282 9.00021 7.30426 9.2937 6.78184 9.81613C6.25942 10.3385 5.96592 11.0471 5.96592 11.7859C5.96592 13.8002 4.33735 15.4288 2.32307 15.4288H2.14307V14.5716H2.32307C3.06188 14.5716 3.77044 14.2781 4.29286 13.7557C4.81529 13.2333 5.10878 12.5247 5.10878 11.7859C5.10878 9.77164 6.73735 8.14307 8.75164 8.14307H13.0716C15.0859 8.14307 16.7145 9.77164 16.7145 11.7859V11.9959C16.7145 12.4467 16.6257 12.8931 16.4532 13.3096C16.2807 13.7261 16.0278 14.1046 15.709 14.4233C15.3903 14.7421 15.0118 14.995 14.5953 15.1675C14.1788 15.34 13.7324 15.4288 13.2816 15.4288V14.5716C14.7045 14.5716 15.8574 13.4145 15.8574 11.9959V11.7859C15.8574 11.0471 15.5639 10.3385 15.0414 9.81613C14.519 9.2937 13.8105 9.00021 13.0716 9.00021H8.75164ZM16.7145 11.7859C16.7145 9.77164 18.3431 8.14307 20.3574 8.14307H20.5716V9.00021H20.3574C19.6185 9.00021 18.91 9.2937 18.3876 9.81613C17.8651 10.3385 17.5716 11.0471 17.5716 11.7859C17.5716 12.5247 17.8651 13.2333 18.3876 13.7557C18.91 14.2781 19.6185 14.5716 20.3574 14.5716H20.5716V15.4288H20.3574C19.3912 15.4288 18.4646 15.045 17.7815 14.3618C17.0983 13.6786 16.7145 12.7521 16.7145 11.7859ZM10.2859 11.5716V15.4288H11.1431V11.5716H10.2859Z" fill="white"/>
</g>
<defs>
<clipPath id="clip0_31_19446">
<rect width="24" height="24" fill="white"/>
</clipPath>
</defs>
</svg>

<svg xmlns="http://www.w3.org/2000/svg" width="24" height="24" fill="none" viewBox="0 0 24 24"><g clip-path="url(#a)"><path fill="#7023EB" d="M0 0h24v24H0z"/><path fill="#fff" d="M8.752 9a2.786 2.786 0 0 0-2.786 2.786 3.64 3.64 0 0 1-3.643 3.643h-.18v-.857h.18a2.786 2.786 0 0 0 2.786-2.786 3.64 3.64 0 0 1 3.643-3.643h4.32a3.64 3.64 0 0 1 3.643 3.643v.21a3.433 3.433 0 0 1-3.433 3.433v-.857a2.58 2.58 0 0 0 2.575-2.576v-.21A2.785 2.785 0 0 0 13.072 9zm7.963 2.786a3.64 3.64 0 0 1 3.642-3.643h.215V9h-.215a2.786 2.786 0 1 0 0 5.572h.215v.857h-.215a3.643 3.643 0 0 1-3.642-3.643m-6.43-.214v3.857h.858v-3.857z"/></g><defs><clipPath id="a"><path fill="#fff" d="M0 0h24v24H0z"/></clipPath></defs></svg>
